felix/dist/img/logo.svg

<svg width="109" height="175" viewBox="0 0 109 175" fill="none" xmlns="http://www.w3.org/2000/svg">
<g clip-path="url(#clip0_643_1244)">
<path d="M36.1218 144.683H31.6214V131.353H37.2233V129.146H27.1523V163.529H31.6214V146.889H36.1218V144.683Z" fill="white"/>
<path d="M49.5595 131.353V129.146H39.457V163.529H49.5595V161.323H43.9575V146.889H48.4265V144.683H43.9575V131.353H49.5595Z" fill="white"/>
<path d="M61.8659 161.323H56.2639V129.146H51.7949V163.529H61.8659V161.323Z" fill="white"/>
<path d="M62.9668 163.529H67.4673V129.146H62.9668V163.529Z" fill="white"/>
<path d="M78.6707 129.146L76.2788 138.317L74.1702 129.146H69.7012L73.8869 147.488L69.7012 163.529H73.0687L75.4605 154.358L77.5377 163.529H82.0067L77.8209 145.187L82.0067 129.146H78.6707Z" fill="white"/>
<path d="M22.6816 163.529H24.9161V129.146H22.6816V163.529Z" fill="white"/>
<path d="M18.1816 163.529H20.4476V149.127H18.1816V163.529Z" fill="white"/>
<path d="M18.1816 146.889H20.4476V129.146H18.1816V146.889Z" fill="white"/>
<path d="M7.00977 163.529H9.24427V129.146H7.00977V163.529Z" fill="white"/>
<path d="M11.4785 163.529H15.9475V142.446H11.4785V163.529Z" fill="white"/>
<path d="M11.4785 140.24H15.9475V129.146H11.4785V140.24Z" fill="white"/>
<path d="M0.306641 153.539H4.77565V129.146H0.306641V153.539Z" fill="white"/>
<path d="M0.306641 163.529H4.77565V155.776H0.306641V163.529Z" fill="white"/>
<path d="M104.414 146.889H108.883V129.146H104.414V146.889Z" fill="white"/>
<path d="M104.414 163.529H108.883V149.127H104.414V163.529Z" fill="white"/>
<path d="M84.2422 163.529H86.5081V129.146H84.2422V163.529Z" fill="white"/>
<path d="M88.7422 163.529H90.9767V154.673H88.7422V163.529Z" fill="white"/>
<path d="M88.7422 152.436H90.9767V129.146H88.7422V152.436Z" fill="white"/>
<path d="M93.2109 163.529H97.6799V142.446H93.2109V163.529Z" fill="white"/>
<path d="M93.2109 140.24H97.6799V129.146H93.2109V140.24Z" fill="white"/>
<path d="M99.9453 163.529H102.18V129.146H99.9453V163.529Z" fill="white"/>
<path d="M6.85156 64.4156H9.08607V0H6.85156V64.4156Z" fill="white"/>
<path d="M6.85156 127.256H9.08607V66.6532H6.85156V127.256Z" fill="white"/>
<path d="M0.117188 87.7364H4.58619V0H0.117188V87.7364Z" fill="white"/>
<path d="M0.117188 127.256H4.58619V89.9424H0.117188V127.256Z" fill="white"/>
<path d="M18.0254 41.1264H20.2599V0H18.0254V41.1264Z" fill="white"/>
<path d="M18.0254 127.256H20.2599V43.3324H18.0254V127.256Z" fill="white"/>
<path d="M11.2891 111.026H15.7895V0H11.2891V111.026Z" fill="white"/>
<path d="M11.2891 127.256H15.7895V113.232H11.2891V127.256Z" fill="white"/>
<path d="M22.6816 64.4156H24.9161V0H22.6816V64.4156Z" fill="white"/>
<path d="M22.6816 127.256H24.9161V66.6532H22.6816V127.256Z" fill="white"/>
<path d="M33.8242 41.1264H37.2547V0H33.8242V41.1264Z" fill="white"/>
<path d="M33.8242 127.256H37.2547V43.3324H33.8242V127.256Z" fill="white"/>
<path d="M27.1191 127.256H31.5881V0H27.1191V127.256Z" fill="white"/>
<path d="M43.7363 127.256H45.9708V0H43.7363V127.256Z" fill="white"/>
<path d="M39.457 87.7364H42.3839V0H39.457V87.7364Z" fill="white"/>
<path d="M39.457 127.256H42.3839V89.9424H39.457V127.256Z" fill="white"/>
<path d="M51.7949 64.4156H56.2639V0H51.7949V64.4156Z" fill="white"/>
<path d="M51.7949 127.256H56.2639V66.6532H51.7949V127.256Z" fill="white"/>
<path d="M99.9453 111.026H102.18V0H99.9453V111.026Z" fill="white"/>
<path d="M99.9453 127.256H102.18V113.232H99.9453V127.256Z" fill="white"/>
<path d="M104.414 64.4156H108.883V0H104.414V64.4156Z" fill="white"/>
<path d="M104.414 127.256H108.883V66.6532H104.414V127.256Z" fill="white"/>
<path d="M88.7422 87.7364H90.9767V0H88.7422V87.7364Z" fill="white"/>
<path d="M88.7422 127.256H90.9767V89.9424H88.7422V127.256Z" fill="white"/>
<path d="M93.2109 41.1264H97.6799V0H93.2109V41.1264Z" fill="white"/>
<path d="M93.2109 127.256H97.6799V43.3324H93.2109V127.256Z" fill="white"/>
<path d="M84.2422 64.4156H86.5081V0H84.2422V64.4156Z" fill="white"/>
<path d="M84.2422 127.256H86.5081V66.6532H84.2422V127.256Z" fill="white"/>
<path d="M77.5371 127.256H82.0061V0H77.5371V127.256Z" fill="white"/>
<path d="M73.6035 127.256H75.8695V0H73.6035V127.256Z" fill="white"/>
<path d="M58.498 111.026H60.7326V0H58.498V111.026Z" fill="white"/>
<path d="M58.498 127.256H60.7326V113.232H58.498V127.256Z" fill="white"/>
<path d="M62.998 41.1264H67.467V0H62.998V41.1264Z" fill="white"/>
<path d="M62.998 127.256H67.467V43.3324H62.998V127.256Z" fill="white"/>
<path d="M69.7012 87.7364H71.9357V0H69.7012V87.7364Z" fill="white"/>
<path d="M69.7012 127.256H71.9357V89.9424H69.7012V127.256Z" fill="white"/>
<path d="M47.293 111.026H49.5275V0H47.293V111.026Z" fill="white"/>
<path d="M47.293 127.256H49.5275V113.232H47.293V127.256Z" fill="white"/>
<path d="M6.19188 173.676H2.98175C2.95028 173.676 2.88733 173.645 2.85586 173.613L2.28937 173.015C2.2579 172.952 2.22642 172.92 2.22642 172.888V167.752C2.22642 167.594 2.16348 167.531 2.00612 167.531H0.526944C0.369584 167.531 0.306641 167.594 0.306641 167.752V173.235C0.306641 173.361 0.338113 173.456 0.401056 173.519L1.62846 174.842C1.72287 174.937 1.81729 175 1.97465 175H6.19188C6.31777 175 6.41218 174.905 6.41218 174.748V173.928C6.41218 173.771 6.31777 173.676 6.19188 173.676V173.676Z" fill="white"/>
<path d="M12.4859 172.29H9.40163L10.5346 168.792C10.5346 168.792 10.5346 168.792 10.5661 168.792H11.3529L12.4859 172.29V172.29ZM15.098 174.275L13.0209 167.783C12.9579 167.563 12.8006 167.531 12.6747 167.531H9.49604C9.4331 167.531 9.37016 167.531 9.27574 167.594C9.2128 167.626 9.14985 167.689 9.14985 167.783L7.07271 174.275C7.07271 174.338 7.04124 174.37 7.04124 174.433C7.00977 174.464 7.00977 174.527 7.00977 174.59V174.748C7.00977 174.905 7.10418 175 7.23007 175H8.39453C8.45747 175 8.55189 174.968 8.58336 174.811L9.02397 173.487H12.8635L13.3041 174.811C13.3671 174.968 13.4615 175 13.5244 175H14.9407C15.0666 175 15.161 174.905 15.161 174.748V174.59C15.161 174.527 15.161 174.464 15.1295 174.433C15.1295 174.37 15.098 174.338 15.098 174.275V174.275Z" fill="white"/>
<path d="M22.3369 171.848V173.141C22.3369 173.204 22.3369 173.235 22.3054 173.267L21.8963 173.708C21.8963 173.708 21.8648 173.739 21.8334 173.739H18.1511C18.0882 173.739 18.0567 173.739 18.0567 173.613V171.502H21.8334L22.3369 171.785C22.3369 171.817 22.3369 171.817 22.3369 171.848V171.848ZM18.0567 170.619V168.918C18.0567 168.792 18.0882 168.792 18.1197 168.792H20.9207C20.9836 168.792 21.0151 168.792 21.0466 168.823L21.5501 169.39C21.5816 169.422 21.6131 169.485 21.6131 169.516V170.619H18.0567V170.619ZM24.0679 171.155L23.1237 170.619V169.17C23.1237 169.044 23.0922 168.949 23.0293 168.886L21.9278 167.657C21.8334 167.563 21.7389 167.531 21.5816 167.531H16.4517C16.3258 167.531 16.1055 167.563 16.1055 167.909V174.59C16.1055 174.937 16.3258 175 16.4517 175H23.0608C23.1552 175 23.2496 174.968 23.3125 174.874L24.1308 173.96C24.1937 173.865 24.2252 173.802 24.2252 173.676V171.439C24.2252 171.281 24.1308 171.187 24.0679 171.155V171.155Z" fill="white"/>
<path d="M31.8092 173.739H27.7493C27.7179 173.739 27.6864 173.708 27.6549 173.676L27.0569 173.046C27.0255 173.015 27.0255 172.951 27.0255 172.92V171.785H31.7463C31.8721 171.785 31.9666 171.691 31.9666 171.533V170.809C31.9666 170.651 31.8721 170.556 31.7463 170.556H27.0255V169.422C27.0255 169.39 27.0255 169.327 27.0569 169.296L27.4976 168.823C27.529 168.792 27.5605 168.792 27.592 168.792H31.8092C31.9351 168.792 32.0295 168.697 32.0295 168.539V167.752C32.0295 167.594 31.9351 167.531 31.8092 167.531H26.396C26.2702 167.531 26.1757 167.563 26.0813 167.657L25.2001 168.634C25.1057 168.729 25.0742 168.823 25.0742 168.918V173.235C25.0742 173.361 25.1057 173.456 25.2001 173.519L26.4275 174.842C26.5219 174.937 26.6478 175 26.7737 175H31.8092C31.9351 175 32.0295 174.905 32.0295 174.748V173.96C32.0295 173.834 31.9351 173.739 31.8092 173.739V173.739Z" fill="white"/>
<path d="M38.9224 173.676H35.7122C35.6493 173.676 35.6178 173.645 35.5863 173.613L34.9884 173.015C34.9569 172.952 34.9569 172.92 34.9569 172.888V167.752C34.9569 167.594 34.8625 167.531 34.7366 167.531H33.2574C33.1001 167.531 33.0371 167.594 33.0371 167.752V173.235C33.0371 173.361 33.0686 173.456 33.1315 173.519L34.3589 174.842C34.4533 174.937 34.5478 175 34.6736 175H38.9224C39.0482 175 39.1427 174.905 39.1427 174.748V173.928C39.1427 173.771 39.0482 173.676 38.9224 173.676V173.676Z" fill="white"/>
<path d="M45.8149 173.676H42.6048C42.5733 173.676 42.5104 173.645 42.4789 173.613L41.9124 173.015C41.8809 172.952 41.8495 172.92 41.8495 172.888V167.752C41.8495 167.594 41.7865 167.531 41.6292 167.531H40.15C40.0241 167.531 39.9297 167.594 39.9297 167.752V173.235C39.9297 173.361 39.9612 173.456 40.0241 173.519L41.2515 174.842C41.3459 174.937 41.4718 175 41.5977 175H45.8149C45.9408 175 46.0352 174.905 46.0352 174.748V173.928C46.0352 173.771 45.9408 173.676 45.8149 173.676V173.676Z" fill="white"/>
<path d="M53.4928 173.739H49.4329C49.4015 173.739 49.37 173.708 49.3385 173.676L48.7405 173.046C48.7091 173.015 48.7091 172.951 48.7091 172.92V171.785H53.4299C53.5557 171.785 53.6502 171.691 53.6502 171.533V170.809C53.6502 170.651 53.5557 170.556 53.4299 170.556H48.7091V169.422C48.7091 169.39 48.7091 169.327 48.7405 169.296L49.1811 168.823C49.2126 168.792 49.2441 168.792 49.2756 168.792H53.4928C53.6187 168.792 53.7131 168.697 53.7131 168.539V167.752C53.7131 167.594 53.6187 167.531 53.4928 167.531H48.0796C47.9537 167.531 47.8593 167.563 47.7649 167.657L46.8837 168.634C46.7893 168.729 46.7578 168.823 46.7578 168.918V173.235C46.7578 173.361 46.7893 173.456 46.8837 173.519L48.1111 174.842C48.2055 174.937 48.3314 175 48.4573 175H53.4928C53.6502 175 53.7131 174.905 53.7131 174.748V173.96C53.7131 173.834 53.6502 173.739 53.4928 173.739V173.739Z" fill="white"/>
<path d="M60.5115 169.39V170.462C60.5115 170.493 60.5115 170.525 60.4801 170.556L59.945 171.124H56.6405V168.918C56.6405 168.792 56.672 168.792 56.7034 168.792H59.945C60.008 168.792 60.008 168.792 60.0395 168.823L60.4801 169.296C60.5115 169.327 60.5115 169.359 60.5115 169.39ZM62.5572 174.275L61.5501 171.817L62.3054 171.029C62.3999 170.935 62.4313 170.777 62.4313 170.619V168.918C62.4313 168.823 62.3999 168.729 62.3369 168.634L61.4242 167.657C61.3298 167.563 61.2354 167.531 61.1095 167.531H55.0669C54.941 167.531 54.7207 167.563 54.7207 167.909V174.748C54.7207 174.905 54.7836 175 54.941 175H56.4202C56.5461 175 56.6405 174.905 56.6405 174.748V172.353H59.8506L60.7633 174.842C60.8263 174.968 60.9207 175 60.9836 175H62.3999C62.5257 175 62.5887 174.937 62.5887 174.905C62.6202 174.842 62.6202 174.779 62.6202 174.716V174.622C62.6202 174.527 62.6202 174.496 62.6202 174.433C62.6202 174.401 62.5887 174.338 62.5572 174.275V174.275Z" fill="white"/>
<path d="M72.7852 169.39V170.462C72.7852 170.493 72.7537 170.525 72.7223 170.556L72.1872 171.124H68.8827V168.918C68.8827 168.792 68.9456 168.792 68.9771 168.792H72.2187C72.2502 168.792 72.2817 168.792 72.3131 168.823L72.7223 169.296C72.7537 169.327 72.7852 169.359 72.7852 169.39ZM74.8309 174.275L73.7923 171.817L74.5476 171.029C74.642 170.935 74.705 170.777 74.705 170.619V168.918C74.705 168.823 74.6735 168.729 74.6106 168.634L73.6979 167.657C73.6035 167.563 73.4776 167.531 73.3517 167.531H67.3091C67.1832 167.531 66.9629 167.563 66.9629 167.909V174.748C66.9629 174.905 67.0573 175 67.1832 175H68.6624C68.7883 175 68.8827 174.905 68.8827 174.748V172.353H72.0928L73.037 174.842C73.0684 174.968 73.1629 175 73.2573 175H74.6735C74.7994 175 74.8309 174.937 74.8623 174.905C74.8938 174.842 74.8938 174.779 74.8938 174.716V174.622C74.8938 174.527 74.8938 174.496 74.8623 174.433C74.8623 174.401 74.8309 174.338 74.8309 174.275V174.275Z" fill="white"/>
<path d="M81.377 169.453V173.078C81.377 173.109 81.3455 173.172 81.314 173.204L80.9049 173.676C80.8734 173.708 80.842 173.739 80.779 173.739H78.0724C78.0095 173.739 77.978 173.708 77.9465 173.676L77.5059 173.204C77.4745 173.172 77.4745 173.109 77.4745 173.078V169.453C77.4745 169.39 77.4745 169.359 77.5059 169.296L77.9465 168.855C77.978 168.792 78.0095 168.792 78.0724 168.792H80.779C80.842 168.792 80.8734 168.792 80.9049 168.855L81.314 169.296C81.3455 169.359 81.377 169.39 81.377 169.453ZM82.2582 167.626C82.1952 167.563 82.1008 167.531 81.9749 167.531H76.8765C76.7506 167.531 76.6562 167.563 76.5933 167.626L75.6806 168.634C75.5862 168.729 75.5547 168.823 75.5547 168.949V173.55C75.5547 173.676 75.5862 173.802 75.6806 173.897L76.5933 174.874C76.6562 174.968 76.7506 175 76.8765 175H81.9749C82.1008 175 82.1952 174.968 82.2582 174.874L83.1709 173.897C83.2338 173.802 83.2968 173.676 83.2968 173.55V168.949C83.2968 168.823 83.2338 168.729 83.1709 168.634L82.2582 167.626Z" fill="white"/>
<path d="M90.5986 171.848V173.141C90.5986 173.204 90.5986 173.235 90.5672 173.267L90.158 173.708C90.1266 173.708 90.1266 173.739 90.0951 173.739H86.3814C86.3499 173.739 86.287 173.739 86.287 173.613V171.502H90.0951L90.5672 171.785C90.5986 171.817 90.5986 171.817 90.5986 171.848ZM86.287 170.619V168.918C86.287 168.792 86.3499 168.792 86.3814 168.792H89.1509C89.2139 168.792 89.2453 168.792 89.2768 168.823L89.7804 169.39C89.8433 169.422 89.8433 169.485 89.8433 169.516V170.619H86.287ZM92.3296 171.155L91.3854 170.619V169.17C91.3854 169.044 91.354 168.949 91.291 168.886L90.158 167.657C90.0951 167.563 89.9692 167.531 89.8433 167.531H84.7134C84.5875 167.531 84.3672 167.563 84.3672 167.909V174.59C84.3672 174.937 84.5875 175 84.7134 175H91.291C91.4169 175 91.4798 174.968 91.5428 174.874L92.3925 173.96C92.4555 173.865 92.4869 173.802 92.4869 173.676V171.439C92.4869 171.281 92.3925 171.187 92.3296 171.155V171.155Z" fill="white"/>
<path d="M99.1582 169.453V173.078C99.1582 173.109 99.1268 173.172 99.0953 173.204L98.6862 173.676C98.6547 173.708 98.5918 173.739 98.5603 173.739H95.8222C95.7907 173.739 95.7593 173.708 95.7278 173.676L95.2872 173.204C95.2557 173.172 95.2557 173.109 95.2557 173.078V169.453C95.2557 169.39 95.2557 169.359 95.2872 169.296L95.7278 168.855C95.7593 168.792 95.7907 168.792 95.8222 168.792H98.5603C98.5918 168.792 98.6547 168.792 98.6862 168.855L99.0953 169.296C99.1268 169.359 99.1582 169.39 99.1582 169.453ZM100.039 167.626C99.9451 167.563 99.8506 167.531 99.7562 167.531H94.6578C94.5319 167.531 94.4375 167.563 94.3745 167.626L93.4618 168.634C93.3674 168.729 93.3359 168.823 93.3359 168.949V173.55C93.3359 173.676 93.3674 173.802 93.4618 173.897L94.3745 174.874C94.4375 174.968 94.5319 175 94.6578 175H99.7562C99.8506 175 99.9451 174.968 100.039 174.874L100.952 173.897C101.015 173.802 101.047 173.676 101.047 173.55V168.949C101.047 168.823 101.015 168.729 100.952 168.634L100.039 167.626Z" fill="white"/>
<path d="M108.664 167.531H102.023C101.866 167.531 101.771 167.594 101.771 167.752V168.602C101.771 168.729 101.866 168.823 102.023 168.823H104.384V174.748C104.384 174.905 104.447 175 104.604 175H106.083C106.24 175 106.303 174.905 106.303 174.748V168.823H108.664C108.79 168.823 108.884 168.76 108.884 168.602V167.752C108.884 167.594 108.79 167.531 108.664 167.531Z" fill="white"/>
</g>
<defs>
<clipPath id="clip0_643_1244">
<rect width="109" height="175" fill="white"/>
</clipPath>
</defs>
</svg>

<svg xmlns="http://www.w3.org/2000/svg" fill="none" viewBox="0 0 109 175">
  <g fill="#fff" clip-path="url(#a)">
    <path d="M36.12 144.68h-4.5v-13.33h5.6v-2.2H27.15v34.38h4.47v-16.64h4.5v-2.2ZM49.56 131.35v-2.2h-10.1v34.38h10.1v-2.2h-5.6v-14.44h4.47v-2.2h-4.47v-13.34h5.6ZM61.87 161.32h-5.6v-32.17h-4.48v34.38h10.08v-2.2ZM62.97 163.53h4.5v-34.38h-4.5v34.38ZM78.67 129.15l-2.4 9.17-2.1-9.17H69.7l4.19 18.34-4.19 16.04h3.37l2.4-9.17 2.07 9.17H82l-4.19-18.34 4.19-16.04h-3.34ZM22.68 163.53h2.24v-34.38h-2.24v34.38ZM18.18 163.53h2.27v-14.4h-2.27v14.4ZM18.18 146.89h2.27v-17.74h-2.27v17.74ZM7.01 163.53h2.23v-34.38H7.01v34.38ZM11.48 163.53h4.47v-21.08h-4.47v21.08ZM11.48 140.24h4.47v-11.1h-4.47v11.1ZM.3 153.54h4.48v-24.4H.3v24.4ZM.3 163.53h4.48v-7.75H.3v7.75ZM104.41 146.89h4.47v-17.74h-4.47v17.74ZM104.41 163.53h4.47v-14.4h-4.47v14.4ZM84.24 163.53h2.27v-34.38h-2.27v34.38ZM88.74 163.53h2.24v-8.86h-2.24v8.86ZM88.74 152.44h2.24v-23.3h-2.24v23.3ZM93.21 163.53h4.47v-21.08h-4.47v21.08ZM93.21 140.24h4.47v-11.1h-4.47v11.1ZM99.95 163.53h2.23v-34.38h-2.23v34.38ZM6.85 64.42H9.1V0H6.85v64.42ZM6.85 127.26H9.1v-60.6H6.85v60.6ZM.12 87.74h4.47V0H.12v87.74ZM.12 127.26h4.47V89.94H.12v37.32ZM18.03 41.13h2.23V0h-2.23v41.13ZM18.03 127.26h2.23V43.33h-2.23v83.93ZM11.29 111.03h4.5V0h-4.5v111.03ZM11.29 127.26h4.5v-14.03h-4.5v14.03ZM22.68 64.42h2.24V0h-2.24v64.42ZM22.68 127.26h2.24v-60.6h-2.24v60.6ZM33.82 41.13h3.43V0h-3.43v41.13ZM33.82 127.26h3.43V43.33h-3.43v83.93ZM27.12 127.26h4.47V0h-4.47v127.26ZM43.74 127.26h2.23V0h-2.23v127.26ZM39.46 87.74h2.92V0h-2.92v87.74ZM39.46 127.26h2.92V89.94h-2.92v37.32ZM51.8 64.42h4.46V0H51.8v64.42ZM51.8 127.26h4.46v-60.6H51.8v60.6ZM99.95 111.03h2.23V0h-2.23v111.03ZM99.95 127.26h2.23v-14.03h-2.23v14.03ZM104.41 64.42h4.47V0h-4.47v64.42ZM104.41 127.26h4.47v-60.6h-4.47v60.6ZM88.74 87.74h2.24V0h-2.24v87.74ZM88.74 127.26h2.24V89.94h-2.24v37.32ZM93.21 41.13h4.47V0h-4.47v41.13ZM93.21 127.26h4.47V43.33h-4.47v83.93ZM84.24 64.42h2.27V0h-2.27v64.42ZM84.24 127.26h2.27v-60.6h-2.27v60.6ZM77.54 127.26H82V0h-4.47v127.26ZM73.6 127.26h2.27V0H73.6v127.26ZM58.5 111.03h2.23V0H58.5v111.03ZM58.5 127.26h2.23v-14.03H58.5v14.03ZM63 41.13h4.47V0H63v41.13ZM63 127.26h4.47V43.33H63v83.93ZM69.7 87.74h2.24V0H69.7v87.74ZM69.7 127.26h2.24V89.94H69.7v37.32ZM47.3 111.03h2.23V0h-2.24v111.03ZM47.3 127.26h2.23v-14.03h-2.24v14.03ZM6.2 173.68H2.97a.23.23 0 0 1-.12-.07l-.57-.6c-.03-.06-.06-.09-.06-.12v-5.14c0-.16-.07-.22-.22-.22H.53c-.16 0-.22.06-.22.22v5.49c0 .12.03.22.1.28l1.22 1.32c.1.1.19.16.34.16H6.2c.13 0 .22-.1.22-.25v-.82c0-.16-.1-.25-.22-.25ZM12.49 172.29H9.4l1.13-3.5H11.35l1.14 3.5Zm2.6 1.99-2.07-6.5c-.06-.22-.22-.25-.35-.25H9.5c-.07 0-.13 0-.22.06-.07.04-.13.1-.13.2l-2.08 6.49c0 .06-.03.09-.03.15-.03.03-.03.1-.03.16v.16c0 .16.1.25.22.25h1.16c.07 0 .16-.03.2-.19l.43-1.32h3.84l.44 1.32c.07.16.16.19.22.19h1.42c.13 0 .22-.1.22-.25v-.16c0-.06 0-.13-.03-.16 0-.06-.03-.1-.03-.16ZM22.34 171.85v1.3c0 .05 0 .09-.03.12l-.41.44s-.04.03-.07.03h-3.68c-.06 0-.1 0-.1-.13v-2.1h3.78l.5.28v.06Zm-4.28-1.23v-1.7c0-.13.03-.13.06-.13h2.8c.06 0 .1 0 .13.03l.5.57c.03.03.06.1.06.13v1.1h-3.55Zm6 .53-.94-.53v-1.45c0-.13-.03-.22-.1-.28l-1.1-1.23c-.09-.1-.18-.13-.34-.13h-5.13c-.12 0-.34.03-.34.38v6.68c0 .35.22.41.34.41h6.61c.1 0 .19-.03.25-.13l.82-.91c.06-.1.1-.16.1-.28v-2.24c0-.16-.1-.25-.16-.28ZM31.8 173.74h-4.05c-.03 0-.06-.03-.1-.06l-.6-.63c-.02-.04-.02-.1-.02-.13v-1.13h4.72c.12 0 .22-.1.22-.26v-.72c0-.16-.1-.25-.22-.25h-4.72v-1.14c0-.03 0-.1.03-.12l.44-.48c.03-.03.06-.03.1-.03h4.2c.14 0 .23-.1.23-.25v-.79c0-.16-.1-.22-.22-.22H26.4a.4.4 0 0 0-.32.13l-.88.97c-.1.1-.13.2-.13.29v4.32c0 .12.04.22.13.28l1.23 1.32c.1.1.22.16.34.16h5.04c.13 0 .22-.1.22-.25v-.79c0-.13-.1-.22-.22-.22ZM38.92 173.68h-3.2c-.07 0-.1-.03-.13-.07l-.6-.6c-.03-.06-.03-.09-.03-.12v-5.14c0-.16-.1-.22-.22-.22h-1.48c-.16 0-.22.06-.22.22v5.49c0 .12.03.22.1.28l1.22 1.32c.1.1.19.16.31.16h4.25c.13 0 .22-.1.22-.25v-.82c0-.16-.1-.25-.22-.25ZM45.81 173.68h-3.2a.23.23 0 0 1-.13-.07l-.57-.6c-.03-.06-.06-.09-.06-.12v-5.14c0-.16-.06-.22-.22-.22h-1.48c-.13 0-.22.06-.22.22v5.49c0 .12.03.22.1.28l1.22 1.32c.1.1.22.16.35.16h4.21c.13 0 .23-.1.23-.25v-.82c0-.16-.1-.25-.23-.25ZM53.5 173.74h-4.07c-.03 0-.06-.03-.1-.06l-.59-.63c-.03-.04-.03-.1-.03-.13v-1.13h4.72c.13 0 .22-.1.22-.26v-.72c0-.16-.1-.25-.22-.25h-4.72v-1.14c0-.03 0-.1.03-.12l.44-.48c.03-.03.06-.03.1-.03h4.21c.13 0 .22-.1.22-.25v-.79c0-.16-.1-.22-.22-.22h-5.41a.4.4 0 0 0-.32.13l-.88.97c-.1.1-.12.2-.12.29v4.32c0 .12.03.22.12.28l1.23 1.32c.1.1.22.16.35.16h5.03c.16 0 .22-.1.22-.25v-.79c0-.13-.06-.22-.22-.22ZM60.51 169.39v1.07c0 .03 0 .06-.03.1l-.53.56h-3.31v-2.2c0-.13.03-.13.06-.13h3.24c.07 0 .07 0 .1.03l.44.48c.03.03.03.06.03.09Zm2.05 4.89-1.01-2.46.76-.8c.09-.09.12-.24.12-.4v-1.7a.5.5 0 0 0-.1-.29l-.9-.97a.4.4 0 0 0-.32-.13h-6.04c-.13 0-.35.03-.35.38v6.84c0 .16.06.25.22.25h1.48c.13 0 .22-.1.22-.25v-2.4h3.21l.91 2.5c.07.12.16.15.22.15h1.42c.13 0 .19-.06.19-.1.03-.06.03-.12.03-.18V174.43c0-.03-.03-.1-.06-.16ZM72.79 169.39v1.07c0 .03-.04.06-.07.1l-.53.56h-3.3v-2.2c0-.13.06-.13.09-.13h3.24c.03 0 .06 0 .1.03l.4.48c.03.03.07.06.07.09Zm2.04 4.89-1.04-2.46.76-.8a.6.6 0 0 0 .16-.4v-1.7c0-.1-.04-.2-.1-.29l-.91-.97a.48.48 0 0 0-.35-.13h-6.04c-.13 0-.35.03-.35.38v6.84c0 .16.1.25.22.25h1.48c.13 0 .22-.1.22-.25v-2.4h3.21l.95 2.5c.03.12.12.15.22.15h1.41c.13 0 .16-.06.2-.1.02-.06.02-.12.02-.18v-.1c0-.1 0-.12-.03-.19 0-.03-.03-.1-.03-.16ZM81.38 169.45v3.63c0 .03-.03.1-.07.12l-.4.48c-.04.03-.07.06-.13.06h-2.7c-.07 0-.1-.03-.13-.06l-.44-.48c-.04-.03-.04-.1-.04-.12v-3.63c0-.06 0-.1.04-.15l.44-.45c.03-.06.06-.06.12-.06h2.7c.07 0 .1 0 .13.06l.41.45c.04.06.07.09.07.15Zm.88-1.82c-.06-.07-.16-.1-.29-.1h-5.1c-.12 0-.21.03-.28.1l-.9 1a.4.4 0 0 0-.14.32v4.6c0 .13.04.25.13.35l.91.97c.07.1.16.13.29.13h5.1c.12 0 .22-.03.28-.13l.91-.97c.06-.1.13-.22.13-.35v-4.6c0-.13-.07-.22-.13-.32l-.91-1ZM90.6 171.85v1.3c0 .05 0 .09-.03.12l-.41.44c-.03 0-.03.03-.06.03h-3.72c-.03 0-.1 0-.1-.13v-2.1h3.82l.47.28c.03.03.03.03.03.06Zm-4.31-1.23v-1.7c0-.13.06-.13.1-.13h2.76c.06 0 .1 0 .13.03l.5.57c.06.03.06.1.06.13v1.1H86.3Zm6.04.53-.94-.53v-1.45c0-.13-.04-.22-.1-.28l-1.13-1.23c-.06-.1-.2-.13-.32-.13h-5.13c-.12 0-.34.03-.34.38v6.68c0 .35.22.41.34.41h6.58c.13 0 .19-.03.25-.13l.85-.91c.07-.1.1-.16.1-.28v-2.24c0-.16-.1-.25-.16-.28ZM99.16 169.45v3.63c0 .03-.03.1-.06.12l-.41.48a.23.23 0 0 1-.13.06h-2.74c-.03 0-.06-.03-.1-.06l-.43-.48c-.03-.03-.03-.1-.03-.12v-3.63c0-.06 0-.1.03-.15l.44-.45c.03-.06.06-.06.1-.06h2.73c.03 0 .1 0 .13.06l.4.45c.04.06.07.09.07.15Zm.88-1.82a.5.5 0 0 0-.28-.1h-5.1c-.13 0-.22.03-.29.1l-.9 1a.4.4 0 0 0-.13.32v4.6c0 .13.03.25.12.35l.91.97c.07.1.16.13.29.13h5.1c.1 0 .19-.03.28-.13l.91-.97c.06-.1.1-.22.1-.35v-4.6a.53.53 0 0 0-.1-.32l-.91-1ZM108.66 167.53h-6.64c-.15 0-.25.06-.25.22v.85c0 .13.1.22.25.22h2.36v5.93c0 .16.07.25.22.25h1.48c.16 0 .22-.1.22-.25v-5.93h2.36c.13 0 .22-.06.22-.22v-.85c0-.16-.09-.22-.22-.22Z"/>
  </g>
  <defs>
    <clipPath id="a">
      <path fill="#fff" d="M0 0h109v175H0z"/>
    </clipPath>
  </defs>
</svg>
